X: 1
T: Walzer FCBb chords
T:Hanny Christen. Bd.VIII Zug, Luzern, Uri I. S.278 (wz09934) orig. F,C,Bb-Dur
T: T\"anze aus Weggis (Luzern)
% I have my doubts about part C in F-Dur (and will contact a prof. about it), ph DEc 2014
M:3/4
L:1/4
K:F %%MIDI gchordon
c |: "F"c2A | c2a | (g3 | f)zc | f2e | g2f | "C7"(e3 | e)zB | B2G | B2g | (f3 | e)zd | 
c2d | B2c | "F"(A3 | A)zc | c2A | c2a | (g3 | f)zc | f2e | g2f | "Bb"(d3 | d)^cd | 
(b3 | b)^cd | "F/C"(a3 | a)g>f | "C7"ezc | dze | "F"(f3 |1 f) zc :|2 fzG |: [K:C] [L:1/8] "C"EG ce (g2 | g2) a3g | "G7"Pf2B2B2 | 
B4G2 | FG Bd (f2 | f2)b3a | "C"Pg2 c2c2 | c4G2 | EG ce (g2 | g2) G2G2 | "F"FA df (a2 | a2) aa aa | "C"g2z2e2 | "G7"f4B2 | "C"c6- |1  
c2z2G2 :|2 c2z2c2 |: [K:F] [L:1/4]"_??" "F"f3 | "Bb"e2d | (c3 | c)Ac | d3 | c2A | "C7"(B3 | E)zz | G/B/ e>d | B3 | 
"F"F/A/ d>c | A3 | "C7"C2B | A2G | "F"F3 |1 Fzc :|2 Fzf |: [K:Bb] "F7"f>eA | g3 | "Bb"f>dB | b3 | "F7"aa>c | 
e2 a/g/ | "Bb"ff>B | d2f | "F7"f>eA | g3 | "Bb"f>dB | "Bb0"b2=e | "Bb"fzB | "F7"fzA | "Bb"(B3 |1 B)zf :|2 Bzz |]  

